!!!COM: Bach, Johann Sebastian
!!!CDT: 1685/3/-1750/7/28
!!!OPR@@DE: Das wohltemperierte Klavier
!!!OPR@EN: The Well-Tempered Clavier
!!!OTL: The Well-Tempered Clavier, Book 1, Fugue 1 in C major
!!!SCT: BWV 846b
!!!parts: 4
**kern	**kern	**kern	**kern
*staff2	*staff2	*staff1	*staff1
*clefF4	*clefF4	*clefG2	*clefG2
*k[]	*k[]	*k[]	*k[]
*M4/4	*M4/4	*M4/4	*M4/4
*C:	*C:	*C:	*C:
*MM62	*MM62	*MM62	*MM62
=1	=1	=1	=1
1r	1r	8r	1r
.	.	8c	.
.	.	8dL	.
.	.	8eJ	.
.	.	8.fL	.
.	.	32g	.
.	.	32fJ	.
.	.	8eL	.
.	.	8aJ	.
=2	=2	=2	=2
1r	1r	8dL	2r
.	.	[8gJ	.
.	.	16g]L	.
.	.	16a	.
.	.	16g	.
.	.	16fJ	.
.	.	16eL	8r
.	.	16f	.
.	.	16e	8g
.	.	16dJ	.
.	.	16cL	8aL
.	.	16d	.
.	.	16c	8bJ
.	.	16BJ	.
=3	=3	=3	=3
1r	1r	8AL	8.ccL
.	.	8f#J	.
.	.	.	32dd
.	.	.	32ccJ
.	.	[4g	8bL
.	.	.	8eeJ
.	.	8g]L	8aL
.	.	16f#	[8ddJ
.	.	16eJ	.
.	.	8f#L	16dd]L
.	.	.	16ee
.	.	8dJ	16dd
.	.	.	16ccJ
=4	=4	=4	=4
1r	8r	8gL	16bL
.	.	.	16g
.	8G	8fnJ	16a
.	.	.	16bJ
.	8AL	8eL	16ccL
.	.	.	16b
.	8BJ	8dJ	16cc
.	.	.	16ddJ
.	8.cL	8c	16eeL
.	.	.	16dd
*	*	*strophe	*
*	*	*^	*
*	*	*S/sic	*S/ossia	*
.	.	8r	8axxL	16ee
.	32d	.	.	16ff#J
.	32cJ	.	.	.
.	8BL	8r	8dxxJ	8ggL
*	*	*v	*v	*
*	*	*Xstrophe	*
.	8eJ	[8g	8bJ
=5	=5	=5	=5
2r	8AL	8g]L	8ccL
.	[8dJ	16f	8aJ
.	.	16eJ	.
.	16d]L	[4f	16ddL
.	16e	.	16cc
.	16d	.	16b
.	16cJ	.	16aJ
8r	8BL	16f]L	8.gL
.	.	16f	.
8C	[8cJ	8eJ	.
.	.	.	16gJ
8DL	8c]L	4d	16fL
.	.	.	16e
8EJ	8B-J	.	16f
.	.	.	16gJ
=6	=6	=6	=6
8.FL	8AL	8cL	16aL
.	.	.	16g
.	8dJ	8fJ	16a
32G	.	.	16bJ
32FJ	.	.	.
8EL	8GL	16r	2cc
.	.	16gL	.
8AJ	8cJ	16f	.
.	.	16eJ	.
8DL	16r	8fL	.
.	16AL	.	.
[8GJ	16B	8dJ	.
.	16cJ	.	.
16G]L	4d	[4g	4b
16A	.	.	.
16G	.	.	.
16FJ	.	.	.
=7	=7	=7	=7
16EL	4G	4g]	8r
16F	.	.	.
16E	.	.	8cc
16DJ	.	.	.
16CL	8r	4r	8ddL
16D	.	.	.
16C	8G	.	8eeJ
16BBJ	.	.	.
8AAL	8AL	2r	8.ffL
8DJ	8BJ	.	.
.	.	.	32gg
.	.	.	32ffJ
8AL	8.cL	.	8eeL
8F#J	.	.	8aaJ
.	32d	.	.
.	32cJ	.	.
=8	=8	=8	=8
16GL	8BL	1r	8ddL
16A	.	.	.
16B-	8eJ	.	[8ggJ
16GJ	.	.	.
8C#L	8AL	.	16gg]L
.	.	.	16aa
8DJ	[8dJ	.	16gg
.	.	.	16ffJ
4A	16d]L	.	8eeL
.	16e	.	.
.	16d	.	[8aaJ
.	16cnJ	.	.
4E	8BnL	.	16aa]L
.	.	.	16bb
.	[8eJ	.	16aa
.	.	.	16ggJ
=9	=9	=9	=9
16AL	4e]	8r	2ff
16B	.	.	.
16c	.	8g	.
16dJ	.	.	.
16cL	4d	8aL	.
16B	.	.	.
16A	.	8bJ	.
16GJ	.	.	.
*	*	*	*strophe
*	*	*	*^
*	*	*	*S/sic	*S/ossia
8c	16cL	8.ccL	8xeeL	8.xeeL
.	16B	.	.	.
8r	16c	.	8xff#J	.
.	16AJ	32dd	.	16xff#Jk
.	.	32ccJ	.	.
*	*	*	*v	*v
*	*	*	*Xstrophe
4r	16eL	8bL	[4gg
.	16d	.	.
.	16c	8eeJ	.
.	16BJ	.	.
=10	=10	=10	=10
2r	16cL	8aL	4gg]
.	16A	.	.
.	16B	[8ddJ	.
.	16cJ	.	.
.	16dL	16dd]L	4ff#
.	16c	16ee	.
.	16B	16dd	.
.	16AJ	16ccJ	.
8r	4G	8b	16ggL
.	.	.	16ffn
8GG	.	8r	16ee
.	.	.	16ddJ
8AAL	4r	8r	16ccL
.	.	.	16dd
8BBJ	.	8d	16cc
.	.	.	16bJ
=11	=11	=11	=11
8.CL	1r	8eL	16aL
.	.	.	16cc
.	.	8f#J	16b
32D	.	.	16aJ
32CJ	.	.	.
8BBL	.	8.gL	8g
8EJ	.	.	8r
.	.	32a	.
.	.	32gJ	.
8AAL	.	8f#L	16r
.	.	.	16ccL
[8DJ	.	8bJ	16b
.	.	.	16aJ
16D]L	.	8eL	8g#L
16E	.	.	.
16D	.	[8aJ	8eeJ
16CJ	.	.	.
=12	=12	=12	=12
8BB	8r	16a]L	8ddL
.	.	16b	.
4E	8E	16a	16cc
.	.	16g#J	16bJ
.	8F#L	8f#L	16aL
.	.	.	16g#
8D	8G#J	8fnJ	16a
.	.	.	16bJ
8C	8.AL	8eL	16ccL
.	.	.	16f#
*	*	*	*strophe
*	*	*	*^
*	*	*	*S/sic	*S/ossia
4Fn	.	[8dJ	16g#xx	16axx
.	32B	.	16axxJ	16g#xxJ
.	32AJ	.	.	.
*	*	*	*v	*v
*	*	*	*Xstrophe
.	8G#L	16d]L	8bL
.	.	16e	.
[8E	8cJ	16f#	16a
.	.	16g#J	16bJ
=13	=13	=13	=13
8E]	8F#L	16aL	8ccL
.	.	16g#	.
4D	[8BJ	16a	8ffJ
.	.	16bJ	.
.	16B]L	16g#L	8eeL
.	16c	16f#	.
8E	16B	16g#	[8ddJ
.	16AJ	16aJ	.
8FnL	8G#	8b	8dd]L
16E	4A	8r	16cc
16DJ	.	.	16bJ
4E	.	4r	8.bWxL
.	8G#	.	.
.	.	.	16aJ
=14	=14	=14	=14
4AA	4A	8r	4a
.	.	8c	.
4r	8r	8dL	4r
.	8G	8eJ	.
2r	8AL	8.fL	2r
.	8BJ	.	.
.	.	32g	.
.	.	32fJ	.
.	8.cL	8eL	.
.	.	8aJ	.
.	32d	.	.
.	32cJ	.	.
=15	=15	=15	=15
8r	8BL	8dL	2r
8GG	8eJ	[8gJ	.
8AAL	8AL	16g]L	.
.	.	16a	.
8BBJ	[8dJ	16g	.
.	.	16fJ	.
8.CL	8d]L	8eL	8r
.	8GJ	8eJ	8g
32D	.	.	.
32CJ	.	.	.
8BBL	4d	8f#L	8aL
8EJ	.	[8gJ	8bJ
=16	=16	=16	=16
8AAL	8cL	8g]L	8.ccL
[8DJ	8AJ	8f#J	.
.	.	.	32dd
.	.	.	32ccJ
16D]L	4e	8g#L	8bL
16E	.	.	.
16D	.	[8aJ	8ccJ
16CJ	.	.	.
8BBL	8d	8a]L	8ddL
8BB-J	8r	8gnJ	8eeJ
8AAL	4r	8aL	8.ffnL
8GGJ	.	8bJ	.
.	.	.	32gg
.	.	.	32ffJ
=17	=17	=17	=17
8AAL	8r	8.ccL	8eeL
8F#J	8A	.	8aaJ
.	.	32dd	.
.	.	32ccJ	.
8GL	8BL	8bL	8ddL
8EJ	8c#J	8eeJ	[8ggJ
4D	8.dL	8aL	16gg]L
.	.	.	16aa
.	.	[8ddJ	16gg
.	32e	.	16ffJ
.	32dJ	.	.
8EL	8cnL	16dd]L	8eeL
.	.	16ee	.
8FnJ	8fnxJ	16dd	8aaJ
.	.	16ccJ	.
=18	=18	=18	=18
8.GL	8BL	8bL	8ddL
.	[8eJ	8ggJ	8bb-J
32A	.	.	.
32GJ	.	.	.
8FL	16e]L	8cc#L	8aaL
.	16f	.	.
8B-J	16e	8ddJ	16gg
.	16dJ	.	16ffJ
8EL	8c#	8eeL	16ggL
.	.	.	16ff
[8AJ	8r	8cc#J	16gg
.	.	.	16eeJ
16A]L	4r	8ddL	16ffL
16B-	.	.	16gg
16A	.	8eeJ	16ggM
16GJ	.	.	32ff
.	.	.	32ggJ
=19	=19	=19	=19
16FL	8r	8a	16aaL
16E	.	.	16cc#
16F	8A	8r	16dd
16DJ	.	.	16ggJ
8GL	8BL	8r	8.eeL
8AJ	8c#J	8e	.
.	.	.	16ddJ
[2D	8.dL	8f#L	8dd
.	.	8gJ	8r
.	32e	.	.
.	32dJ	.	.
.	8cnL	8.aL	4r
.	8f#J	.	.
.	.	32b	.
.	.	32aJ	.
=20	=20	=20	=20
16D]L	8BL	8gL	2r
16E	.	.	.
16D	[8eJ	8ccJ	.
16CJ	.	.	.
16BBL	16e]L	8f#L	.
16AA	16f#	.	.
16GG	16e	[8bJ	.
16FF#J	16dJ	.	.
8EEL	[2c	16b]L	4r
.	.	16cc	.
8EJ	.	16b	.
.	.	16aJ	.
8F#L	.	16gL	8r
.	.	16f#	.
[8GJ	.	16e	8g
.	.	16dJ	.
=21	=21	=21	=21
8G]L	16c]L	4e	8aL
.	16d	.	.
16A	16c	.	8bJ
16GJ	16BJ	.	.
8F#L	16AL	[4d	8.ccL
.	16G	.	.
8DJ	16A	.	.
.	16F#J	.	32dd
.	.	.	32ccJ
[2G	8GL	16d]L	8bL
.	.	16a	.
.	8BJ	16g	8eeJ
.	.	16fnJ	.
.	8cL	16eL	8aL
.	.	16g	.
.	8dJ	16f	[8ddJ
.	.	16aJ	.
=22	=22	=22	=22
2G]	8.eL	[4g	16dd]L
.	.	.	16ee
.	.	.	16dd
.	32f	.	16ccJ
.	32eJ	.	.
.	8dL	16g]L	16bL
.	.	16a	16cc
.	8gJ	8b-J	16dd
.	.	.	16eeJ
4A	8cL	4cc	16ffL
.	.	.	16gg
.	[8fJ	.	16aa
.	.	.	16ggJ
8BL	16f]L	8ddL	16ffL
.	16g	.	16ee
8cJ	16f	8gJ	16dd
.	16eJ	.	16ccJ
=23	=23	=23	=23
16FL	4d	4.g	4btx
16A	.	.	.
16G	.	.	.
16FJ	.	.	.
16EL	8eL	.	8ccL
16D	.	.	.
16C	[8dJ	[8f	8ddJ
16BBJ	.	.	.
16CL	8d]L	8f]L	8g
16D	.	.	.
16E	8GJ	8eJ	4cc
16FJ	.	.	.
8GL	[4G	4d	.
8GGJ	.	.	8b
=24	=24	=24	=24
[1C	8G]L	8e	4cc
.	8CJ	4a	.
.	8DL	.	8bL
.	8EJ	[8g	8b-J
.	8.FL	8g]L	8a
.	.	8fJ	4dd
.	32G	.	.
.	32FJ	.	.
.	8EL	8gL	.
.	8AJ	8aJ	8cc
=25	=25	=25	=25
1C_	8DL	8.b-L	8ddL
.	[8GJ	.	8eeJ
.	.	32cc	.
.	.	32b-J	.
.	16G]L	8aL	[4ff
.	16A	.	.
.	16G	8ddJ	.
.	16FJ	.	.
.	16EL	8gL	16ff]L
.	16D	.	16aa
.	16E	[8ccJ	16gg
.	16FJ	.	16ffJ
.	16GL	16cc]L	16eeL
.	16A	16dd	16ff
.	16B-	16cc	16ee
.	16GJ	16b-J	16ddJ
=26	=26	=26	=26
1C_	16AL	16aL	2cc
.	16E	16b-	.
.	16F	16a	.
.	16GJ	16gJ	.
.	16AL	16fL	.
.	16Bn	16g	.
.	16c	16f	.
.	16AJ	16eJ	.
.	2B	[4d	16r
.	.	.	32gL
.	.	.	32a
.	.	.	16bn
.	.	.	16ccJ
.	.	8.d]L	16ddL
.	.	.	16ee
.	.	.	[8ffJ
.	.	16gJ	.
=27	=27	=27	=27
1C;]	1c;	4a	32ff]L
.	.	.	32cc
.	.	.	32dd
.	.	.	32ee
.	.	.	16ff
.	.	.	16ggJ
.	.	16r	8.aaL
.	.	16ffL	.
.	.	8ddJ	.
.	.	.	16bbJ
.	.	2gg; 2ee;	2ccc;
==	==	==	==
*-	*-	*-	*-
!!!OTA: Das wohltemperirte Clavier
!!!OCY: Deutschland
!!!PPP: Coethen; Cothen
!!!ODT: <1722//
!!!PDT: 1722
!!!AFR: fuga; fugue
!!!AST: polyphony
!!!AMT: simple quadruple
!!!SCA: Bach-Werke-Verzeichnis
!!!YOR: Bach-Gesellschaft Ausgabe, Band 14
!!!YOO: Breitkopf und Härtel
!!!YOY: 1866
!!!YOE: Franz Kroll (1820-1877)
!!!AIN: cemba; clavi
!!!YEC: Copyright 1994, David Huron
!!!YEM: Rights to all derivative electronic formats reserved.
!!!ENC: David Huron
!!!END: 1986/11/14
!!!EED: David Huron
!!!YER: 1994/08/10
!!!EED2: Craig Stuart Sapp (notational niceties)
!!!EEV: 2020/09/19
!!!EFL: 1/48
